X: 109
T:General Stuart's Reel
K:A
M:C|
L:1/8
R:Reel
e|c/2d/2e f/2g/a e2 ce|dBfB bBfB|c/2d/2e f/2g/2a e2 ce|dBge a2 A"'"e|!
c/2d/2e f/2g/2a e2 ce|dBfB bBfB|cefa efce|defg a2 A||!
e|cA A/2B/2A cAcA|BE E/2F/2E BEBd|cA A/2B/2A cAcA|BE E/2F/2E e2"'"Ae|!
cAeA fAeA|GEBE GABd|cAcA aAeA|cAdc B2 A:||
% <A name="D1X110">
